build/img/menu-icon.svg

<svg width="18" height="18" viewBox="0 0 18 18" fill="none" xmlns="http://www.w3.org/2000/svg">
<path fill-rule="evenodd" clip-rule="evenodd" d="M2.42858 0.428711C3.37144 0.428711 4.14287 1.20014 4.14287 2.143C4.14287 3.08585 3.37144 3.85728 2.42858 3.85728C1.48572 3.85728 0.714294 3.08585 0.714294 2.143C0.714294 1.20014 1.48572 0.428711 2.42858 0.428711Z" fill="white"/>
<path fill-rule="evenodd" clip-rule="evenodd" d="M2.42858 7.09521C3.37144 7.09521 4.14287 7.86664 4.14287 8.8095C4.14287 9.75236 3.37144 10.5238 2.42858 10.5238C1.48572 10.5238 0.714294 9.75236 0.714294 8.8095C0.714294 7.86664 1.48572 7.09521 2.42858 7.09521Z" fill="white"/>
<path fill-rule="evenodd" clip-rule="evenodd" d="M2.42858 14.1431C3.37144 14.1431 4.14287 14.9145 4.14287 15.8574C4.14287 16.8002 3.37144 17.5716 2.42858 17.5716C1.48572 17.5716 0.714294 16.8002 0.714294 15.8574C0.714294 14.9145 1.48572 14.1431 2.42858 14.1431Z" fill="white"/>
<path fill-rule="evenodd" clip-rule="evenodd" d="M9.28573 0.428711C10.2286 0.428711 11 1.20014 11 2.143C11 3.08585 10.2286 3.85728 9.28573 3.85728C8.34287 3.85728 7.57144 3.08585 7.57144 2.143C7.57144 1.20014 8.34287 0.428711 9.28573 0.428711Z" fill="white"/>
<path fill-rule="evenodd" clip-rule="evenodd" d="M9.28573 7.28564C10.2286 7.28564 11 8.05707 11 8.99993C11 9.94279 10.2286 10.7142 9.28573 10.7142C8.34287 10.7142 7.57144 9.94279 7.57144 8.99993C7.57144 8.05707 8.34287 7.28564 9.28573 7.28564Z" fill="white"/>
<path fill-rule="evenodd" clip-rule="evenodd" d="M9.28573 14.1431C10.2286 14.1431 11 14.9145 11 15.8574C11 16.8002 10.2286 17.5716 9.28573 17.5716C8.34287 17.5716 7.57144 16.8002 7.57144 15.8574C7.57144 14.9145 8.34287 14.1431 9.28573 14.1431Z" fill="white"/>
<path fill-rule="evenodd" clip-rule="evenodd" d="M16.1429 0.428711C17.0857 0.428711 17.8571 1.20014 17.8571 2.143C17.8571 3.08585 17.0857 3.85728 16.1429 3.85728C15.2 3.85728 14.4286 3.08585 14.4286 2.143C14.4286 1.20014 15.2 0.428711 16.1429 0.428711Z" fill="white"/>
<path fill-rule="evenodd" clip-rule="evenodd" d="M16.1429 7.28564C17.0857 7.28564 17.8571 8.05707 17.8571 8.99993C17.8571 9.94279 17.0857 10.7142 16.1429 10.7142C15.2 10.7142 14.4286 9.94279 14.4286 8.99993C14.4286 8.05707 15.2 7.28564 16.1429 7.28564Z" fill="white"/>
<path fill-rule="evenodd" clip-rule="evenodd" d="M16.1429 14.1431C17.0857 14.1431 17.8571 14.9145 17.8571 15.8574C17.8571 16.8002 17.0857 17.5716 16.1429 17.5716C15.2 17.5716 14.4286 16.8002 14.4286 15.8574C14.4286 14.9145 15.2 14.1431 16.1429 14.1431Z" fill="white"/>
</svg>

<svg width="18" height="18" viewBox="0 0 18 18" fill="none" xmlns="http://www.w3.org/2000/svg"><path fill-rule="evenodd" clip-rule="evenodd" d="M2.429.429a1.72 1.72 0 0 1 1.714 1.714 1.72 1.72 0 0 1-1.714 1.714A1.72 1.72 0 0 1 .714 2.143 1.72 1.72 0 0 1 2.43.429zm0 6.666A1.72 1.72 0 0 1 4.143 8.81a1.72 1.72 0 0 1-1.714 1.714A1.72 1.72 0 0 1 .714 8.81 1.72 1.72 0 0 1 2.43 7.095zm0 7.048a1.72 1.72 0 0 1 1.714 1.714 1.72 1.72 0 0 1-1.714 1.715 1.72 1.72 0 0 1-1.715-1.715 1.72 1.72 0 0 1 1.715-1.714zM9.286.429A1.72 1.72 0 0 1 11 2.143a1.72 1.72 0 0 1-1.714 1.714A1.72 1.72 0 0 1 7.57 2.143 1.72 1.72 0 0 1 9.286.429zm0 6.857A1.72 1.72 0 0 1 11 9a1.72 1.72 0 0 1-1.714 1.714A1.72 1.72 0 0 1 7.57 9a1.72 1.72 0 0 1 1.715-1.714zm0 6.857A1.72 1.72 0 0 1 11 15.857a1.72 1.72 0 0 1-1.714 1.715 1.72 1.72 0 0 1-1.715-1.715 1.72 1.72 0 0 1 1.715-1.714zM16.143.429a1.72 1.72 0 0 1 1.714 1.714 1.72 1.72 0 0 1-1.714 1.714 1.72 1.72 0 0 1-1.714-1.714A1.72 1.72 0 0 1 16.143.429zm0 6.857A1.72 1.72 0 0 1 17.857 9a1.72 1.72 0 0 1-1.714 1.714A1.72 1.72 0 0 1 14.429 9a1.72 1.72 0 0 1 1.714-1.714zm0 6.857a1.72 1.72 0 0 1 1.714 1.714 1.72 1.72 0 0 1-1.714 1.715 1.72 1.72 0 0 1-1.714-1.715 1.72 1.72 0 0 1 1.714-1.714z" fill="#fff"/></svg>
